lib/brands/icons/bootstrap.svg

<svg xmlns="http://www.w3.org/2000/svg" fill="none" aria-hidden="true" viewBox="0 0 48 48"><g id="bootstrap-Icon"><g id="Group"><path id="Vector" fill="#563D7C" d="M6 37.3581C6 39.9221 8.07823 42 10.6419 42H37.3581C39.9221 42 42 39.9218 42 37.3581V10.6419C42 8.07795 39.9218 6 37.3581 6H10.6419C8.07795 6 6 8.07823 6 10.6419V37.3581Z"/><path id="Vector_2" fill="white" d="M20.9286 21.9241V16.826H25.4162C25.8436 16.826 26.2557 16.8616 26.6526 16.9328C27.0494 17.004 27.4005 17.1312 27.7058 17.3144C28.0111 17.4976 28.2553 17.752 28.4385 18.0776C28.6216 18.4032 28.7132 18.8204 28.7132 19.3292C28.7132 20.2451 28.4385 20.9065 27.889 21.3136C27.3395 21.7206 26.6373 21.9241 25.7825 21.9241H20.9286ZM16.1357 13.1016V34.8984H26.6984C27.6753 34.8984 28.6267 34.7763 29.5527 34.5321C30.4787 34.2879 31.303 33.9114 32.0255 33.4026C32.748 32.8938 33.3229 32.2374 33.7503 31.4335C34.1777 30.6296 34.3914 29.6782 34.3914 28.5792C34.3914 27.2156 34.0607 26.0505 33.3992 25.0837C32.7378 24.117 31.7355 23.4403 30.3922 23.0536C31.3691 22.5855 32.1069 21.9852 32.6055 21.2525C33.1041 20.5198 33.3534 19.604 33.3534 18.505C33.3534 17.4874 33.1855 16.6326 32.8497 15.9407C32.5139 15.2487 32.0407 14.6941 31.4302 14.2769C30.8196 13.8597 30.087 13.5595 29.2322 13.3763C28.3774 13.1931 27.431 13.1016 26.3931 13.1016H16.1357ZM20.9286 31.174V25.1906H26.1489C27.1868 25.1906 28.0212 25.4297 28.6522 25.908C29.2831 26.3863 29.5985 27.1851 29.5985 28.3044C29.5985 28.8743 29.5018 29.3424 29.3085 29.7087C29.1152 30.075 28.8557 30.3651 28.53 30.5787C28.2044 30.7924 27.8279 30.9451 27.4005 31.0367C26.9731 31.1282 26.5254 31.174 26.0573 31.174H20.9286Z"/></g></g></svg>

<svg xmlns="http://www.w3.org/2000/svg" fill="none" aria-hidden="true" viewBox="0 0 48 48"><path fill="#563D7C" d="M6 37.358A4.642 4.642 0 0 0 10.642 42h26.716A4.642 4.642 0 0 0 42 37.358V10.642A4.642 4.642 0 0 0 37.358 6H10.642A4.642 4.642 0 0 0 6 10.642v26.716Z"/><path fill="#fff" d="M20.929 21.924v-5.098h4.487c.428 0 .84.036 1.237.107a3.09 3.09 0 0 1 1.053.381c.305.184.55.438.733.764.183.325.274.742.274 1.251 0 .916-.274 1.578-.824 1.985-.55.407-1.252.61-2.107.61H20.93Zm-4.793-8.822v21.796h10.562c.977 0 1.929-.122 2.855-.366a7.632 7.632 0 0 0 2.473-1.13 5.563 5.563 0 0 0 1.724-1.969c.428-.803.641-1.755.641-2.854 0-1.363-.33-2.529-.992-3.495-.661-.967-1.664-1.644-3.007-2.03.977-.468 1.715-1.069 2.213-1.801.5-.733.748-1.649.748-2.748 0-1.018-.168-1.872-.503-2.564a4.189 4.189 0 0 0-1.42-1.664c-.61-.417-1.343-.717-2.198-.9-.855-.184-1.801-.275-2.839-.275H16.136Zm4.793 18.072v-5.983h5.22c1.038 0 1.872.239 2.503.717s.947 1.277.947 2.396c0 .57-.097 1.038-.29 1.405a2.303 2.303 0 0 1-.779.87 3.296 3.296 0 0 1-1.13.458 6.402 6.402 0 0 1-1.343.137H20.93Z"/></svg>
